X: 305815
M: 2/4
L: 1/8
K: G
cege | dBB2 | d(3(d/e/d/) cA | GBBG |\
cege | dBB2 | d(3(d/e/d/) cA | AGG2 :|
K: =f
[K:C]\


